X: 3
T: Father John Angus Rankin's March
Z: ceolachan
S: https://thesession.org/tunes/9547#setting20043
R: barndance
M: 4/4
L: 1/8
K: Gmaj
|: G>A |B2 d2 d2 ^c<d | e2 d2 d2 G>A | B2 d2 dBG>A | B2 A2 A2 G<A |
B2 d2 d2 ^c<d | e2 d2 d2 GB | c<de>c dBc<A | B2 G2 G2 :|
|: e<f |g2 d2 edc<B | e2 d2 d2 e<f | g2 d2 edc<B |
[1 B2 A2 A2 e<f | g2 d2 edc<B | e2 d2 d2 GB | c<de>c dBc<A | B2 G2 G2 :|
[2 B2 A2 A2 (3FGA | B<GBc d2 Bd | e>ce<f g3 d | c<de>c dBc<A | B2 G2 G2 |]
